images/icon-blog.svg

<svg fill="none" height="47" viewBox="0 0 47 47" width="47" xmlns="http://www.w3.org/2000/svg"><g fill="#f46662"><path d="m22.0364 13.9349-4.553 4.553c-1.6774 1.6774-3.3644 3.3548-5.0323 5.0514-.393.4026-.6901.9394-.8051 1.4666-.6039 2.7701-1.1886 5.5402-1.77328 8.3104l-.3259 1.5336c-.15337.7477.04792 1.4953.55598 2.0033.393.393.9393.6135 1.5144.6135.163 0 .3259-.0192.4889-.0479l1.687-.3547c2.6838-.5655 5.3773-1.1406 8.0612-1.6966.623-.1342 1.1502-.4121 1.6007-.8626 7.534-7.5436 15.068-15.0776 22.602-22.6021.5559-.5559.8627-1.2173.9394-2.03203.0095-.13419 0-.26839-.0288-.39299-.0479-.19171-.0863-.393-.1342-.5847-.1054-.48885-.2205-1.0448-.4505-1.58157-1.409-3.22064-3.7478-5.5211-6.9493-6.815109-.6422-.258802-1.3228-.345069-1.917-.421751l-.163-.0191705c-.8627-.1054377-1.6487.1821195-2.3292.8722575-4.3134 4.332533-8.6555 8.674653-12.988 13.007163zm15.0009-11.56938h.0479l.163.01917c.4984.05752.9585.11503 1.3227.26839 2.6072 1.05438 4.5243 2.93309 5.6841 5.57861.1342.30673.2204.69973.3067 1.11189.0288.15337.0671.30673.0959.46009-.0384.17254-.1055.28753-.2397.41213-7.5436 7.5245-15.0776 15.068-22.6116 22.6021-.1246.1246-.2396.1821-.4121.2204-2.6935.5655-5.3773 1.1311-8.0708 1.6966l-1.4186.2971.2684-1.2556c.5847-2.7606 1.1694-5.5307 1.7637-8.2913.0191-.0862.0958-.2204.1821-.3163 1.6678-1.687 3.3356-3.3644 5.0131-5.0322l4.553-4.553c4.3421-4.3421 8.6842-8.68425 13.0167-13.03596.1821-.15336.2684-.18212.3355-.18212z"/><path d="m3.72866 10.4842h16.73584c.6518 0 1.179-.52715 1.179-1.17895 0-.65179-.5272-1.17898-1.179-1.17898h-16.73584c-2.06083 0-3.72866 1.67741-3.72866 3.72863v31.3821c0 2.0608 1.67742 3.7287 3.72866 3.7287h31.37254c2.0608 0 3.7286-1.6774 3.7286-3.7287v-16.0553c0-.6518-.5272-1.179-1.179-1.179s-1.1789.5272-1.1789 1.179v16.0553c0 .7572-.6231 1.3803-1.3803 1.3803h-31.36294c-.75723 0-1.38028-.6231-1.38028-1.3803v-31.3725c0-.7572.62305-1.3803 1.38028-1.3803z"/></g></svg>

<svg width="47" height="47" viewBox="0 0 47 47" fill="none" xmlns="http://www.w3.org/2000/svg">
<path d="M22.0364 13.9349L17.4834 18.4879C15.806 20.1653 14.119 21.8427 12.4511 23.5393C12.0581 23.9419 11.761 24.4787 11.646 25.0059C11.0421 27.776 10.4574 30.5461 9.87272 33.3163L9.54682 34.8499C9.39345 35.5976 9.59474 36.3452 10.1028 36.8532C10.4958 37.2462 11.0421 37.4667 11.6172 37.4667C11.7802 37.4667 11.9431 37.4475 12.1061 37.4188L13.7931 37.0641C16.4769 36.4986 19.1704 35.9235 21.8543 35.3675C22.4773 35.2333 23.0045 34.9554 23.455 34.5049C30.989 26.9613 38.523 19.4273 46.057 11.9028C46.6129 11.3469 46.9197 10.6855 46.9964 9.87077C47.0059 9.73658 46.9964 9.60238 46.9676 9.47778C46.9197 9.28607 46.8813 9.08478 46.8334 8.89308C46.728 8.40423 46.6129 7.84828 46.3829 7.31151C44.9739 4.09087 42.6351 1.79041 39.4336 0.496401C38.7914 0.237599 38.1108 0.151332 37.5166 0.07465L37.3536 0.0554795C36.4909 -0.0499582 35.7049 0.237599 35.0244 0.927737C30.711 5.26027 26.3689 9.60239 22.0364 13.9349ZM37.0373 2.36552C37.0565 2.36552 37.066 2.36552 37.0852 2.36552L37.2482 2.38469C37.7466 2.44221 38.2067 2.49972 38.5709 2.65308C41.1781 3.70746 43.0952 5.58617 44.255 8.23169C44.3892 8.53842 44.4754 8.93142 44.5617 9.34358C44.5905 9.49695 44.6288 9.65031 44.6576 9.80367C44.6192 9.97621 44.5521 10.0912 44.4179 10.2158C36.8743 17.7403 29.3403 25.2838 21.8063 32.8179C21.6817 32.9425 21.5667 33 21.3942 33.0383C18.7007 33.6038 16.0169 34.1694 13.3234 34.7349L11.9048 35.032L12.1732 33.7764C12.7579 31.0158 13.3426 28.2457 13.9369 25.4851C13.956 25.3989 14.0327 25.2647 14.119 25.1688C15.7868 23.4818 17.4546 21.8044 19.1321 20.1366L23.6851 15.5836C28.0272 11.2415 32.3693 6.89935 36.7018 2.54764C36.8839 2.39428 36.9702 2.36552 37.0373 2.36552Z" fill="#F46662"/>
<path d="M3.72866 10.4842H20.4645C21.1163 10.4842 21.6435 9.95705 21.6435 9.30525C21.6435 8.65346 21.1163 8.12627 20.4645 8.12627H3.72866C1.66783 8.12627 0 9.80368 0 11.8549V43.237C0 45.2978 1.67742 46.9657 3.72866 46.9657H35.1012C37.162 46.9657 38.8298 45.2883 38.8298 43.237V27.1817C38.8298 26.5299 38.3026 26.0027 37.6508 26.0027C36.999 26.0027 36.4719 26.5299 36.4719 27.1817V43.237C36.4719 43.9942 35.8488 44.6173 35.0916 44.6173H3.72866C2.97143 44.6173 2.34838 43.9942 2.34838 43.237V11.8645C2.34838 11.1073 2.97143 10.4842 3.72866 10.4842Z" fill="#F46662"/>
</svg>
